X: 9
T: Farewell To Chernobyl
R: reel
M: 4/4
L: 1/8
K: Emin
E3G BEGB|EGBE BAGA|b,3d fb,df|b,dfd edBA|E3G BEGB|EGBE BAGA|d2 Ad FdAd | f3g fedB :||e2ge aege|e2ge agfg|c2ge aege|f3g fedB|e2ge aege|e2ge agfg|~b3 ~a3 ~g3 | ~f3 g fB||e2ge aege|e2ge agfg|c2gc acgc|f3g fedB|Bege Bege|cege cege|d2ge bagf|gfed BAGF||


Tune 767	Setting 13886

